front/public/static/landing/logos/dust/Dust_Logo_White.svg

<svg fill="none" height="24" viewBox="0 0 96 24" width="96" xmlns="http://www.w3.org/2000/svg"><g clip-rule="evenodd" fill="#fff" fill-rule="evenodd"><path d="m12 24c6.6274 0 12-5.3726 12-12 0 6.6274 5.3726 12 12 12s12-5.3726 12-12v12h12c3.3137 0 6-2.6863 6-6s-2.6863-6-6-6h-12c0-6.62742-5.3726-12-12-12s-12 5.37258-12 12c0-6.62742-5.3726-12-12-12-6.62742 0-12 5.37258-12 12 0 6.6274 5.37258 12 12 12zm72-12h-12v12h12z" fill-opacity=".6"/><path d="m0 0h12v24h-12zm24 0h24v12h-24zm36 12h36v-12h-36c-3.3137 0-6 2.68629-6 6s2.6863 6 6 6z"/></g></svg>

<svg width="96" height="24" viewBox="0 0 96 24" fill="none" xmlns="http://www.w3.org/2000/svg">
<path fill-rule="evenodd" clip-rule="evenodd" d="M12 24C18.6274 24 24 18.6274 24 12C24 18.6274 29.3726 24 36 24C42.6274 24 48 18.6274 48 12V24H60C63.3137 24 66 21.3137 66 18C66 14.6863 63.3137 12 60 12H48C48 5.37258 42.6274 0 36 0C29.3726 0 24 5.37258 24 12C24 5.37258 18.6274 0 12 0C5.37258 0 0 5.37258 0 12C0 18.6274 5.37258 24 12 24ZM84 12H72V24H84V12Z" fill="white" fill-opacity="0.6"/>
<path fill-rule="evenodd" clip-rule="evenodd" d="M0 0H12V24H0V0ZM24 0H48V12H24V0ZM60 12H96V0H60C56.6863 0 54 2.68629 54 6C54 9.31371 56.6863 12 60 12Z" fill="white"/>
</svg>
